src/assets/duotone/FingerScan.svg

<svg width="24" height="24" viewBox="0 0 24 24"  xmlns="http://www.w3.org/2000/svg">
<path opacity="0.4" d="M16.9898 10.9302V13.0702C16.9898 14.9502 15.9498 16.6002 14.4098 17.4502C14.2398 17.5402 14.0598 17.6302 13.8698 17.7102C13.5898 17.8202 13.2998 17.9102 12.9998 17.9702C12.6798 18.0302 12.3498 18.0702 12.0098 18.0702C11.9998 18.0702 11.9998 18.0702 11.9898 18.0702C11.6498 18.0702 11.3198 18.0302 10.9998 17.9702C10.7098 17.9102 10.4198 17.8202 10.1398 17.7102L9.58976 17.4502C9.45976 17.3702 9.32976 17.3002 9.20976 17.2102C7.88976 16.3202 7.00977 14.8002 7.00977 13.0702V10.9302C7.00977 10.0702 7.22976 9.26017 7.60976 8.55017C7.68976 8.41017 7.76976 8.2702 7.85976 8.1402C7.94976 8.0002 8.04976 7.88018 8.14977 7.75018C8.24977 7.63018 8.35976 7.51018 8.46976 7.40018C8.69976 7.17018 8.94976 6.97019 9.20976 6.79019C9.34976 6.70019 9.47976 6.61018 9.62976 6.53018C9.74976 6.47018 9.87977 6.40018 10.0098 6.34018C10.1798 6.27018 10.3498 6.20019 10.5198 6.16019C10.6598 6.11019 10.7998 6.08017 10.9398 6.05017C10.9698 6.03017 11.0098 6.03017 11.0498 6.02017C11.3598 5.96017 11.6698 5.93018 11.9898 5.93018H12.0098C12.3298 5.93018 12.6498 5.96017 12.9598 6.02017C12.9698 6.03017 12.9898 6.03018 12.9998 6.03018C13.1598 6.07018 13.3198 6.11019 13.4798 6.16019C13.6398 6.20019 13.7898 6.26019 13.9398 6.32019C14.0898 6.39019 14.2398 6.46018 14.3798 6.53018C14.7998 6.77018 15.1898 7.06018 15.5298 7.40018C16.4298 8.30018 16.9898 9.55018 16.9898 10.9302Z" />
<path d="M22 9.75C21.59 9.75 21.25 9.41 21.25 9V7C21.25 4.42 19.58 2.75 17 2.75H15C14.59 2.75 14.25 2.41 14.25 2C14.25 1.59 14.59 1.25 15 1.25H17C20.44 1.25 22.75 3.56 22.75 7V9C22.75 9.41 22.41 9.75 22 9.75Z" />
<path d="M2 9.75C1.59 9.75 1.25 9.41 1.25 9V7C1.25 3.56 3.56 1.25 7 1.25H9C9.41 1.25 9.75 1.59 9.75 2C9.75 2.41 9.41 2.75 9 2.75H7C4.42 2.75 2.75 4.42 2.75 7V9C2.75 9.41 2.41 9.75 2 9.75Z" />
<path d="M17 22.75H15C14.59 22.75 14.25 22.41 14.25 22C14.25 21.59 14.59 21.25 15 21.25H17C19.58 21.25 21.25 19.58 21.25 17V15C21.25 14.59 21.59 14.25 22 14.25C22.41 14.25 22.75 14.59 22.75 15V17C22.75 20.44 20.44 22.75 17 22.75Z" />
<path d="M9 22.75H7C3.56 22.75 1.25 20.44 1.25 17V15C1.25 14.59 1.59 14.25 2 14.25C2.41 14.25 2.75 14.59 2.75 15V17C2.75 19.58 4.42 21.25 7 21.25H9C9.41 21.25 9.75 21.59 9.75 22C9.75 22.41 9.41 22.75 9 22.75Z" />
<path d="M12.0001 15.6299C10.6801 15.6299 9.6001 14.5499 9.6001 13.2299V10.7599C9.6001 9.43989 10.6801 8.35986 12.0001 8.35986C13.3201 8.35986 14.4001 9.43989 14.4001 10.7599V13.2299C14.4001 14.5599 13.3201 15.6299 12.0001 15.6299ZM12.0001 9.86987C11.5101 9.86987 11.1001 10.2699 11.1001 10.7699V13.2399C11.1001 13.7399 11.5001 14.1399 12.0001 14.1399C12.5001 14.1399 12.9001 13.7399 12.9001 13.2399V10.7699C12.9001 10.2699 12.4901 9.86987 12.0001 9.86987Z" />
</svg>

<?xml version="1.0" encoding="UTF-8"?>
<svg width="24" height="24" viewBox="0 0 24 24" xmlns="http://www.w3.org/2000/svg">
 <path d="m16.99 10.93v2.14c0 1.88-1.04 3.53-2.58 4.38-0.17 0.09-0.35 0.18-0.54 0.26-0.28 0.11-0.57 0.2-0.87 0.26-0.32 0.06-0.65 0.1-0.99 0.1h-0.02c-0.34 0-0.67-0.04-0.99-0.1-0.29-0.06-0.58-0.15-0.86-0.26l-0.55004-0.26c-0.13-0.08-0.26-0.15-0.38-0.24-1.32-0.89-2.2-2.41-2.2-4.14v-2.14c0-0.86 0.21999-1.67 0.59999-2.38 0.08-0.14 0.16-0.27997 0.25-0.40997 0.09-0.14 0.19-0.26002 0.29001-0.39002 0.1-0.12 0.20999-0.24 0.31999-0.35 0.23-0.23 0.48-0.42999 0.74-0.60999 0.14-0.09 0.27-0.18001 0.42-0.26001 0.12-0.06 0.25001-0.13 0.38004-0.19 0.17-0.07 0.34-0.13999 0.51-0.17999 0.14-0.05 0.28-0.08002 0.42-0.11002 0.03-0.02 0.07-0.02 0.11-0.03 0.31-0.06 0.62-0.08999 0.94-0.08999h0.02c0.32 0 0.64 0.02999 0.95 0.08999 0.01 0.01 0.03 0.01001 0.04 0.01001 0.16 0.04 0.32 0.08001 0.48 0.13001 0.16 0.04 0.31 0.1 0.46 0.16 0.15 0.07 0.3 0.13999 0.44 0.20999 0.42 0.24 0.81 0.53 1.15 0.87 0.9 0.9 1.46 2.15 1.46 3.53z" opacity=".4"/>
 <path d="m22 9.75c-0.41 0-0.75-0.34-0.75-0.75v-2c0-2.58-1.67-4.25-4.25-4.25h-2c-0.41 0-0.75-0.34-0.75-0.75s0.34-0.75 0.75-0.75h2c3.44 0 5.75 2.31 5.75 5.75v2c0 0.41-0.34 0.75-0.75 0.75z"/>
 <path d="m2 9.75c-0.41 0-0.75-0.34-0.75-0.75v-2c0-3.44 2.31-5.75 5.75-5.75h2c0.41 0 0.75 0.34 0.75 0.75s-0.34 0.75-0.75 0.75h-2c-2.58 0-4.25 1.67-4.25 4.25v2c0 0.41-0.34 0.75-0.75 0.75z"/>
 <path d="m17 22.75h-2c-0.41 0-0.75-0.34-0.75-0.75s0.34-0.75 0.75-0.75h2c2.58 0 4.25-1.67 4.25-4.25v-2c0-0.41 0.34-0.75 0.75-0.75s0.75 0.34 0.75 0.75v2c0 3.44-2.31 5.75-5.75 5.75z"/>
 <path d="m9 22.75h-2c-3.44 0-5.75-2.31-5.75-5.75v-2c0-0.41 0.34-0.75 0.75-0.75s0.75 0.34 0.75 0.75v2c0 2.58 1.67 4.25 4.25 4.25h2c0.41 0 0.75 0.34 0.75 0.75s-0.34 0.75-0.75 0.75z"/>
 <path d="m12 15.63c-1.32 0-2.4-1.08-2.4-2.4v-2.47c0-1.32 1.08-2.4 2.4-2.4s2.4 1.08 2.4 2.4v2.47c0 1.33-1.08 2.4-2.4 2.4zm0-5.76c-0.49 0-0.9 0.40003-0.9 0.90003v2.47c0 0.5 0.4 0.9 0.9 0.9s0.9-0.4 0.9-0.9v-2.47c0-0.5-0.41-0.90003-0.9-0.90003z"/>
</svg>
